X:1
T:Title
%%score { ( 1 3 5 ) | ( 2 4 ) }
L:1/8
M:6/8
K:Ab
V:1 treble nm="Grand Piano"
V:3 treble 
V:5 treble 
V:2 bass 
V:4 bass 
V:1
 z3 z2[Q:1/4=100] [A,C]/[B,D]/ | [CE][_C=D][=CE] [A,C][CE][CA] | [Ec][=D_c][E=c] [CA]2 [EA] | %3
 [FA][FA][FA] [EG]2 [DF] | [CE]3- [CE]2 [CE] | E2 D GFD | [CF]2 [CE] [CE]2 [Ec]/[Ec]/ | %7
 [=Dc][DB][DA] [DF]2 [DB] |[M:2/4] B4 |[M:1/4] EE |[M:3/4] c3 e3 | F4 z2 | c4 z2 | %13
 E6[K:bass][K:treble] | EF GA Bc | d6 | EF _G=G AB | c6 | c3 e3 | F4 z2 | c4 z2 | %21
 E6[K:bass][K:treble] | F3 d3 |[M:7/8] [EAc][EG][EA] [F=Ace]3 z |[M:3/4] z B, d[Fd] [Ec][DB] | %25
[M:5/8] [CA]-[CA]- [CA]3 |] %26
V:2
 z3 z2 [A,,E,]/[A,,E,]/ | [A,,A,][A,,A,][A,,A,] [A,,E,][A,,E,][A,,E,] | %2
 [A,,A,][A,,A,][A,,A,] [A,,E,]2 [C,A,] | [D,A,][D,A,][D,A,] [D,A,]2 [D,A,] | %4
 [A,,A,]3- [A,,A,]2 [A,,A,] | [E,G,C]2 [E,G,B,] [E,B,D][E,B,D][E,G,B,] | %6
 [A,,A,]2 [A,,A,] [A,,A,]2 [A,,A,]/[G,,A,]/ | [B,,A,][B,,A,][B,,F,] [B,,B,]2 [B,,A,] | %8
[M:2/4] [E,G,D]4 |[M:1/4] E,E, |[M:3/4][K:treble] z E .E2 [F=A][FA] | z B, B,B, G,A, | %12
 z [DE] [DE][DE] B,[K:bass]G, | z A, .A,2 A,A, | [E,C]F, G,A, B,C | z E .E2 EE | %16
 [E,G,D]F, _G,=G, A,B, | z E .E2[K:treble] .E2 | z E .E2 [F=A][FA] | z B, B,B, G,A, | %20
 z [DE] [DE][DE] B,[K:bass]G, | z A, .A,2 A,A, | z A, .A,2 DD |[M:7/8] E,D,C, F,,3[K:treble] c | %24
[M:3/4][K:bass] B,,F, [F,B,F]E,, [E,G,][E,G,] |[M:5/8] [A,,A,]E,C, A,,2 |] %26
V:3
 x6 | x6 | x6 | x6 | x6 | x6 | x6 | x6 |[M:2/4] x4 |[M:1/4] x2 |[M:3/4] z A .A2 cc | z D DD GA | %12
 z G GG BG | z C .C2[K:bass] C[K:treble]C | x6 | z G .G2 GG | x6 | z A .A2 AE | z A .A2 cc | %19
 z D DD GA | z G GG BG | z C .C2[K:bass] C[K:treble]C | z D .D2 AA |[M:7/8] x7 | %24
[M:3/4] [DF]2 z2 z2 |[M:5/8] x5 |] %26
V:4
 x6 | x6 | x6 | x6 | x6 | x6 | x6 | x6 |[M:2/4] x4 |[M:1/4] x2 |[M:3/4][K:treble] C3 E3 | F,4 z2 | %12
 C4 z2[K:bass] | [A,,E,]3 E,,3 | x6 | B,3 E,,3 | x6 | A,3 E,,3[K:treble] | C3 E3 | F,4 z2 | %20
 C4 z2[K:bass] | [A,,E,]3 E,,3 | [D,,D,]3 [F,,F,]3 |[M:7/8] x6[K:treble] x |[M:3/4][K:bass] x6 | %25
[M:5/8] x5 |] %26
V:5
 x6 | x6 | x6 | x6 | x6 | x6 | x6 | x6 |[M:2/4] x4 |[M:1/4] x2 |[M:3/4] x6 | x6 | x6 | %13
 z2 z[K:bass] E,3[K:treble] | x6 | z2 z E,3 | x6 | z2 z E,3 | x6 | x6 | x6 | %21
 z2 z[K:bass] E,3[K:treble] | x6 |[M:7/8] x7 |[M:3/4] x6 |[M:5/8] x5 |] %26

